X:1
T:Adieu! sweet love, adieu - Bateson
T:James Gibb editions
T:#
%%score 1 2 3
L:1/8
M:4/4
K:F
V:1 treble nm="Soprano I" snm="S I"
V:2 treble nm="Soprano II" snm="S II"
V:3 treble-8 nm="Tenor" snm="T"
V:1
"^Adieu! sweet love, adieu""^Thomas Bateson\n (1575-1630)" z8 | z2!p! G2 ^F2 d2 | =B4 z2 G2 | %3
w: |A- dieu, a-|dieu, a-|
 ^F2 d2 _B2 c2 | A2 A2 ^F3 F |[M:4/4] G8 | =F8- | F4 E2 D2 | E4 D4 | ^C4 D4- | D4 ^C4 | D2 B4 AG | %12
w: dieu, a- dieu, sweet|love, a- dieu, a-|dieu!|O|* thus to|part kills|my bleed\-|* ing|heart, O thus to|
 F4 G4- | G4 ^F4 | G6 G2 | A4 z4 | z4 f4- | f4 _e2 d2 | _e8 | d8- | d8 | d2 d3 c A2 | _B4 z4 | %23
w: part kills|* my|bleed- ing|heart,|O|* thus to|part|kills||* my bleed- ing|heart,|
 z4 z2!mf! G2 | F3 G A2 B2 | A2 G2 A4- | A4 z4 | z2 c2 c3 B | A2 d2 d2 ^c2 | d2 B2 A3 A | %30
w: Yet|fate a- las! will|have it so,||yet fate a-|las! will have it|so, will have it|
!>(! G8-!>)! | G8 | z4!p! B4- | B4 A2 G2 | A8- | A4 A4 | A6 G2 | ^F8 | z2!mf! A2 E3 =F | %39
w: so.||Cru\-|* el their|doom|* so|to de-|cree,|At once to|
 G2 G2 G2 ^F2 | G4 z2 d2 | A3 B c4- | c2 G2 B2 A2 | G4 z2!p! G2 | d3 c d2 B2 | A2 A2 B3 A | %46
w: part two lo- vers|true, at|once to part|* two lo- vers|true; But|since we needs must|part, but since we|
 B2 G2 A2 B2 | c2 B2 c3 c | d4 z4 |!f! A3 B c4 | G3 A B2 (AG) | ^F2 (G4 F2) | G2!p!!p! B2 cBcB | %53
w: needs must part, but|since we needs must|part,|Once a- gain|once a- gain a\- *|dieu! sweet\- *|heart, a- dieu, a- dieu, a-|
 A2 G2 ^F2 G2 | G3[Q:1/4=119] =F[Q:1/4=117] _E2[Q:1/4=114] E2 | %55
w: dieu, sweet- heart, a-|dieu, a- dieu! sweet-|
[Q:1/4=111] D2[Q:1/4=108] d2[Q:1/4=105] d3[Q:1/4=102] c |[Q:1/4=102] =B16 |] %57
w: heart, a- dieu, sweet-|heart.|
V:2
!p! G4 B2 G2 | d2 B2 A2 ^F2 | G2 d2 _B2 c2 | A4 z2 G2 | ^F4 z2 d2 |[M:4/4] =B4 _B4- | B4 A2 G2 | %7
w: A- dieu, sweet|love a- dieu, a-|dieu, a- dieu! sweet|love, a-|dieu, a-|dieu! O|* thus to|
 A8- | A4 G4- | G4 F4 | E6 E2 | ^F4 d4- | d4 c2 B2 | A4 B4- | B4 c4- | c4 B4- | B4 A4 | B8 | %18
w: part|* kills|* my|bleed- ing|heart, O|* thus to|part kills|* my|* bleed\-|* ing|heart,|
 z4 c4- | c4 B2 A2 | B4 A2 G2 | (^F2 G4) F2 | G2!mf! d2 B3 c | d2 _e2 d2 c2 | d2 d2 c3 B | %25
w: O|* thus to|part kills my|bleed\- * ing|heart, Yet fate a-|las! will have it|so, yet fate a-|
 c2 d2 d2 ^c2 | d2 A2 F3 G | A3 B A2 G2 | A2 F2 E2 E2 | D2 d2 d3 c | =B4!p! _e4- | e4 d2 c2 | d8- | %33
w: las! will have it|so, yet fate a-|las! will have it|so, will have it|so, will have it|so. Cru\-|* el their|doom,|
 d8 | f4 e2 d2 | e4 d4 | d4 ^c4 | d2!mf! d2 A3 B | c6 G2 | c2 B2 A2 A2 | d3 e f2 f2 | c3 d _e4- | %42
w: |cru- el their|doom so|to de-|cree, At once to|part two|lo- vers true, at|once to part, at|once to part|
 e2 B2 d3 c | =B2!p! G2 _B3 A | B2 G2 ^F2 G2 | G2 ^F2 G3 A | G2 G2 =F2 G2 | A2 (B4 A2) | %48
w: * two lo- vers|true; But since we|needs must part, but|since we needs must|part, but since we|needs must *|
 B2!f! d3 e f2- | f2 c3 d _e2- | e2 B3 cd_e | d2 c2 d4 | z2!p! d2 _eded | c2 B2 A2 B2 | %54
w: part, Once a- gain,|* once a- gain,|* once a- gain a-|dieu! sweet- heart,|a- dieu, a- dieu, a-|dieu! sweet- heart, a-|
 cBcB A2 G2 | ^F2 G2 G2 F2 | G16 |] %57
w: dieu, a- dieu, a- dieu! sweet-|heart, a- dieu, sweet-|heart.|
V:3
 z4!p! G4 | B2 G2 d4 | z2 d2 g2 _e2 | d4 z2 G2 | A4 z2 d2 |[M:4/4][K:treble-8] d8 | d8- | %7
w: A-|dieu, sweet love|a- dieu, a-|dieu, a-|dieu, a-|dieu!|O|
 d4 c2 B2 | c4 B4 | A8 | A4 A4 | d8- | d8 | z4 d4- | d4 c2 B2 | A4 B2 B2 | c6 c2 | d4 d4- | %18
w: * thus to|part kills|my|bleed- ing|heart,||O|* thus to|part kills my|bleed- ing|heart, O|
 d4 c2 B2 | A4 G4- | G4 (^F2 G2) | (A2 B2 A2) d2 | d6!mf! d2 | B3 c d2 _e2 | d2 B2 A2 G2 | %25
w: * thus to|part kills|* my *|bleed\- * * ing|heart, Yet|fate a- las! will|have it so, will|
 (A2 B2) A4 | d2 d2 c2 d2 | e2 f2 f2 e2 | f2 a2 a3 g | ^f2 g2 g2 f2 | g4!p! c4- | c4 B2 A2 | B8 | %33
w: have * it|so, yet fate a-|las! will have it|so, yet fate a-|las! will have it|so. Cru\-|* el their|doom,|
 z4 d4- | d4 c2 B2 | ^c4 f4 | (e2 d2) e4 | d4 z2!mf! d2 | A3 B c4- | c2 G2 d2 d2 | d4 d2 A2- | %41
w: cru\-|* el their|doom so|to * de-|cree, At|once to part|* two lo- vers|true, at once|
 AB c4 G2- | G2 G4 ^F2 | G2!p! d2 g3 f | g2 _e2 d4- | d4 z2 G2 | d3 c d2 B2 | A2 d2 c3 B | B8 | %49
w: * to part two|* lo- vers|true; But since we|needs must part,|* but|since we needs must|part, we needs must|part,|
 z2!f! A3 B c2- | c2 G3 A (B2- | BA) G2 A2 d2 | d4 z2!p! c2 | f2 g2 d2 d2 | _eded c2 B2 | %55
w: Once a- gain,|* once a- gain|* * a- dieu! sweet-|heart, a-|dieu, sweet- heart, a-|dieu, a- dieu, a- dieu! sweet-|
 A2 B2 A2 d2 | d16 |] %57
w: heart, a- dieu, sweet-|heart.|

